X:1
T:Ditchling Carol
M:4/4
L:1/4
K:C
 G| c c c G| e d e c| c c c c| B c d3/2 G/2| G c c c| c d e c| d d B B|\
 c c z2| z2 zG/2-c/2| c c c B| A G A A| A A G A| B d B3/2 A/2| A G A B|\
 c e e c| c c d B| A A2 z|
